Papirus/64x64/mimetypes/application-x-gameboy-color-rom.svg

<svg width="64" height="64" version="1.1" xmlns="http://www.w3.org/2000/svg">
 <path d="m12.75 5c-1.5235 0-2.75 1.2488-2.75 2.8v50.4c0 1.55008 1.2265 2.8 2.75 2.8h38.5c1.5224 0 2.75-1.24992 2.75-2.8v-35.2l-14-4-4-14z" style="opacity:.2"/>
 <path d="m12.75 4c-1.5235 0-2.75 1.2488-2.75 2.8v50.4c0 1.55008 1.2265 2.8 2.75 2.8h38.5c1.5224 0 2.75-1.24992 2.75-2.8v-35.2l-14-4-4-14z" style="fill:#119b94"/>
 <path d="m54 23-18-18v15.1875c0 1.55925 1.2555 2.8125 2.8125 2.8125z" style="opacity:.2"/>
 <path d="m54 22-18-18v15.1875c0 1.55925 1.2555 2.8125 2.8125 2.8125z" style="fill:#34c8c0"/>
 <path d="m12.75 4c-1.5235 0-2.75 1.2495812-2.75 2.8007812v1c0-1.5511999 1.2265-2.8007812 2.75-2.8007812h23.25v-1h-23.25z" style="fill:#ffffff;opacity:.2"/>
 <path d="m28.097656 30.075c-5.075277 0.099232-11.880504 4.07659-12.089844 11.251172-0.134129 4.596985 1.342337 9.548907 9.230469 9.673828 2.381062 0.037712 5.261719-2 5.261719-2l1.5-8h-6.875l-1.125 3h3l-0.597656 2.9375s-1.637631 0.201809-2.47461 0.167969c-2.745071-0.111007-3.973725-2.814787-3.953125-5.109375 0.03784-4.220244 4.076858-7.977234 8.78125-8.027344 2.161396-0.02302 3.660157 1.09375 3.660157 1.09375l0.658203-4.136719s-1.258435-0.923481-4.976563-0.850781zm7.902344-0.075-3 20 9.234375 0.06836c2.44659 0.01386 6.659256-3.07921 6.792969-6.923828-0.0275-1.843894-2.527344-3.644532-2.527344-3.644532s2.474478-1.893636 2.472656-4.501953c-0.0022-2.955251-4.266173-4.929688-5.125-4.929688zm4 4 1.966797 0.05664s2.112206-0.05979 2.132812 1.537109c-0.118376 2.305484-1.803579 2.470342-2.779297 2.458984-0.872958-0.009899-2.320312-0.052733-2.320312-0.052733zm-1.345703 7.927734 3.21875 0.072266s2.100599-0.201319 2.162109 1.826172c0.05119 1.68736-1.590319 2.161142-2.435547 2.173828h-3.599609z" style="opacity:.2"/>
 <path d="m28.097656 29.075c-5.075277 0.099232-11.880503 4.07659-12.089844 11.251172-0.134129 4.596985 1.342337 9.548907 9.230469 9.673828 2.381062 0.037712 5.261719-2 5.261719-2l1.5-8h-6.875l-1.125 3h3l-0.597656 2.9375s-1.637631 0.201809-2.47461 0.167969c-2.745071-0.111007-3.973725-2.814787-3.953125-5.109375 0.03784-4.220244 4.076858-7.977234 8.78125-8.027344 2.161396-0.02302 3.660157 1.09375 3.660157 1.09375l0.658203-4.136719s-1.258435-0.923481-4.976563-0.850781zm7.902344-0.075-3 20 9.234375 0.06836c2.44659 0.01386 6.659256-3.07921 6.792969-6.923828-0.0275-1.843894-2.527344-3.644532-2.527344-3.644532s2.474478-1.893636 2.472656-4.501953c-0.0022-2.955251-4.266173-4.929688-5.125-4.929688zm4 4 1.966797 0.05664s2.112206-0.05979 2.132812 1.537109c-0.118376 2.305484-1.803579 2.470342-2.779297 2.458984-0.872958-0.009899-2.320312-0.052733-2.320312-0.052733zm-1.345703 7.927734 3.21875 0.072266s2.100599-0.201319 2.162109 1.826172c0.05119 1.68736-1.590319 2.161142-2.435547 2.173828h-3.599609z" style="fill:#ffffff"/>
</svg>

<?xml version="1.0" encoding="UTF-8" standalone="no"?>
<svg
   id="_图层_1"
   data-name="图层_1"
   version="1.1"
   viewBox="0 0 128 128"
   width="64"
   height="64"
   sodipodi:docname="application-x-gameboy-color-rom.svg"
   xml:space="preserve"
   inkscape:version="1.4 (e7c3feb100, 2024-10-09)"
   xmlns:inkscape="http://www.inkscape.org/namespaces/inkscape"
   xmlns:sodipodi="http://sodipodi.sourceforge.net/DTD/sodipodi-0.dtd"
   xmlns="http://www.w3.org/2000/svg"
   xmlns:svg="http://www.w3.org/2000/svg"><sodipodi:namedview
     id="namedview3"
     pagecolor="#505050"
     bordercolor="#eeeeee"
     borderopacity="1"
     inkscape:showpageshadow="0"
     inkscape:pageopacity="0"
     inkscape:pagecheckerboard="0"
     inkscape:deskcolor="#505050"
     inkscape:zoom="10.6875"
     inkscape:cx="32"
     inkscape:cy="26.292398"
     inkscape:window-width="1920"
     inkscape:window-height="939"
     inkscape:window-x="0"
     inkscape:window-y="34"
     inkscape:window-maximized="1"
     inkscape:current-layer="_图层_1"
     showguides="true"><sodipodi:guide
       position="7.6134526,83.439664"
       orientation="1,0"
       id="guide7"
       inkscape:locked="false" /><sodipodi:guide
       position="120.24109,71.856006"
       orientation="1,0"
       id="guide8"
       inkscape:locked="false" /></sodipodi:namedview><!-- Generator: Adobe Illustrator 29.0.1, SVG Export Plug-In . SVG Version: 2.1.0 Build 192)  --><defs
     id="defs1"><style
       id="style1">
      .st0 {
        fill: #0071e9;
      }

      .st1 {
        fill: #fff;
      }

      .st2 {
        fill: #5aaaff;
        isolation: isolate;
        opacity: .5;
      }
    </style><style
       id="style1-6">
      .st0 {
        fill: #0071e9;
      }

      .st1 {
        fill: #fff;
      }

      .st2 {
        fill: #5aaaff;
        isolation: isolate;
        opacity: .5;
      }
    </style><style
       id="style1-8">
      .st0 {
        fill: #0071e9;
      }

      .st1 {
        fill: #fff;
      }

      .st2 {
        fill: #5aaaff;
        isolation: isolate;
        opacity: .5;
      }
    </style></defs><path
     class="st0"
     d="M18.2,0c-5.6,0-10.2,4.6-10.2,10.2v107.6c0,5.6,4.6,10.2,10.2,10.2h91.6c5.6,0,10.2-4.6,10.2-10.2V40.6L82.2,0H18.2Z"
     id="path1"
     style="fill:#119b94;fill-opacity:1" /><path
     class="st2"
     d="m 82.761404,2.619883 v 29.2 c 0,3.2 2.145542,11.6 11.89801,11.6 h 24.966316 z"
     id="path2"
     style="fill:#0e7c76;fill-opacity:1;stroke-width:0.987546" /><path
     class="st2"
     d="M 82.116964,0.02339171 V 29.223392 c 0,3.2 2.2,11.6 12.2,11.6 h 25.599996 z"
     id="path2-3"
     style="opacity:1;isolation:isolate;fill:#34c8c0;fill-opacity:1" /><g
     id="g10"
     transform="matrix(2.5528974,0,0,2.2954755,-17.879851,-9.4684518)"><path
       d="M 28.097656,30.075 C 23.022379,30.174232 16.217152,34.15159 16.007812,41.326172 15.873683,45.923157 17.350149,50.875079 25.238281,51 27.619343,51.037712 30.5,49 30.5,49 L 32,41 H 25.125 L 24,44 h 3 l -0.597656,2.9375 c 0,0 -1.637631,0.201809 -2.47461,0.167969 -2.745071,-0.111007 -3.973725,-2.814787 -3.953125,-5.109375 0.03784,-4.220244 4.076858,-7.977234 8.78125,-8.027344 2.161396,-0.02302 3.660157,1.09375 3.660157,1.09375 l 0.658203,-4.136719 c 0,0 -1.258435,-0.923481 -4.976563,-0.850781 z M 36,30 l -3,20 9.234375,0.06836 c 2.44659,0.01386 6.659256,-3.07921 6.792969,-6.923828 C 48.999844,41.300638 46.5,39.5 46.5,39.5 c 0,0 2.474478,-1.893636 2.472656,-4.501953 -0.0022,-2.955251 -4.266173,-4.929688 -5.125,-4.929688 z m 4,4 1.966797,0.05664 c 0,0 2.112206,-0.05979 2.132812,1.537109 -0.118376,2.305484 -1.803579,2.470342 -2.779297,2.458984 C 40.447354,38.042834 39,38 39,38 Z M 38.654297,41.927734 41.873047,42 c 0,0 2.100599,-0.201319 2.162109,1.826172 0.05119,1.68736 -1.590319,2.161142 -2.435547,2.173828 H 38 Z"
       style="opacity:0.2"
       id="path6" /><path
       d="M 28.097656,29.075 C 23.022379,29.174232 16.217153,33.15159 16.007812,40.326172 15.873683,44.923157 17.350149,49.875079 25.238281,50 27.619343,50.037712 30.5,48 30.5,48 L 32,40 H 25.125 L 24,43 h 3 l -0.597656,2.9375 c 0,0 -1.637631,0.201809 -2.47461,0.167969 -2.745071,-0.111007 -3.973725,-2.814787 -3.953125,-5.109375 0.03784,-4.220244 4.076858,-7.977234 8.78125,-8.027344 2.161396,-0.02302 3.660157,1.09375 3.660157,1.09375 l 0.658203,-4.136719 c 0,0 -1.258435,-0.923481 -4.976563,-0.850781 z M 36,29 l -3,20 9.234375,0.06836 c 2.44659,0.01386 6.659256,-3.07921 6.792969,-6.923828 C 48.999844,40.300638 46.5,38.5 46.5,38.5 c 0,0 2.474478,-1.893636 2.472656,-4.501953 -0.0022,-2.955251 -4.266173,-4.929688 -5.125,-4.929688 z m 4,4 1.966797,0.05664 c 0,0 2.112206,-0.05979 2.132812,1.537109 -0.118376,2.305484 -1.803579,2.470342 -2.779297,2.458984 C 40.447354,37.042834 39,37 39,37 Z M 38.654297,40.927734 41.873047,41 c 0,0 2.100599,-0.201319 2.162109,1.826172 0.05119,1.68736 -1.590319,2.161142 -2.435547,2.173828 H 38 Z"
       style="fill:#ffffff"
       id="path7" /></g></svg>
